tools/download-figma-icons/icons/solid/item-list.svg

<svg width="24" height="24" viewBox="0 0 24 24" fill="none" xmlns="http://www.w3.org/2000/svg">
<path fill-rule="evenodd" clip-rule="evenodd" d="M3.32143 3H4.92857C5.52031 3 6 3.47969 6 4.07143V5.67857C6 6.27031 5.52031 6.75 4.92857 6.75H3.32143C2.72969 6.75 2.25 6.27031 2.25 5.67857V4.07143C2.25 3.47969 2.72969 3 3.32143 3ZM3.32143 9.75H4.92857C5.52031 9.75 6 10.2297 6 10.8214V12.4286C6 13.0203 5.52031 13.5 4.92857 13.5H3.32143C2.72969 13.5 2.25 13.0203 2.25 12.4286V10.8214C2.25 10.2297 2.72969 9.75 3.32143 9.75ZM3.32143 16.5H4.92857C5.52031 16.5 6 16.9797 6 17.5714V19.1786C6 19.7703 5.52031 20.25 4.92857 20.25H3.32143C2.72969 20.25 2.25 19.7703 2.25 19.1786V17.5714C2.25 16.9797 2.72969 16.5 3.32143 16.5ZM9.25 3.75C8.69772 3.75 8.25 4.19772 8.25 4.75V5C8.25 5.55228 8.69772 6 9.25 6H20.75C21.3023 6 21.75 5.55228 21.75 5V4.75C21.75 4.19772 21.3023 3.75 20.75 3.75H9.25ZM8.25 11.5C8.25 10.9477 8.69772 10.5 9.25 10.5H20.75C21.3023 10.5 21.75 10.9477 21.75 11.5V11.75C21.75 12.3023 21.3023 12.75 20.75 12.75H9.25C8.69772 12.75 8.25 12.3023 8.25 11.75V11.5ZM9.25 17.25C8.69772 17.25 8.25 17.6977 8.25 18.25V18.5C8.25 19.0523 8.69772 19.5 9.25 19.5H20.75C21.3023 19.5 21.75 19.0523 21.75 18.5V18.25C21.75 17.6977 21.3023 17.25 20.75 17.25H9.25Z" fill="black"/>
</svg>

<svg width="24" height="24" viewBox="0 0 24 24" fill="none" xmlns="http://www.w3.org/2000/svg"><path fill-rule="evenodd" clip-rule="evenodd" d="M3.321 3H4.93C5.52 3 6 3.48 6 4.071V5.68c0 .59-.48 1.07-1.071 1.07H3.32c-.591 0-1.071-.48-1.071-1.071V4.07C2.25 3.48 2.73 3 3.321 3Zm0 6.75H4.93c.59 0 1.07.48 1.07 1.071v1.608c0 .591-.48 1.071-1.071 1.071H3.32c-.591 0-1.071-.48-1.071-1.071V10.82c0-.591.48-1.071 1.071-1.071Zm0 6.75H4.93c.59 0 1.07.48 1.07 1.071v1.608c0 .591-.48 1.071-1.071 1.071H3.32c-.591 0-1.071-.48-1.071-1.071V17.57c0-.591.48-1.071 1.071-1.071ZM9.25 3.75a1 1 0 0 0-1 1V5a1 1 0 0 0 1 1h11.5a1 1 0 0 0 1-1v-.25a1 1 0 0 0-1-1H9.25Zm-1 7.75a1 1 0 0 1 1-1h11.5a1 1 0 0 1 1 1v.25a1 1 0 0 1-1 1H9.25a1 1 0 0 1-1-1v-.25Zm1 5.75a1 1 0 0 0-1 1v.25a1 1 0 0 0 1 1h11.5a1 1 0 0 0 1-1v-.25a1 1 0 0 0-1-1H9.25Z" fill="currentColor"/></svg>
